images/50841775.svg

<?xml version="1.0" encoding="UTF-8"?>
<svg xmlns="http://www.w3.org/2000/svg" xmlns:xlink="http://www.w3.org/1999/xlink" width="300pt" height="300pt" viewBox="0 0 300 300" version="1.1">
<defs>
<g>
<symbol overflow="visible" id="glyph0-0">
<path style="stroke:none;" d="M 0.546875 1.9375 L 0.546875 -7.75 L 6.046875 -7.75 L 6.046875 1.9375 Z M 1.171875 1.328125 L 5.4375 1.328125 L 5.4375 -7.140625 L 1.171875 -7.140625 Z M 1.171875 1.328125 "/>
</symbol>
<symbol overflow="visible" id="glyph0-1">
<path style="stroke:none;" d="M 4.328125 -7.28125 C 3.546875 -7.28125 2.921875 -6.984375 2.453125 -6.390625 C 1.992188 -5.804688 1.765625 -5.007812 1.765625 -4 C 1.765625 -2.988281 1.992188 -2.1875 2.453125 -1.59375 C 2.921875 -1.007812 3.546875 -0.71875 4.328125 -0.71875 C 5.117188 -0.71875 5.742188 -1.007812 6.203125 -1.59375 C 6.660156 -2.1875 6.890625 -2.988281 6.890625 -4 C 6.890625 -5.007812 6.660156 -5.804688 6.203125 -6.390625 C 5.742188 -6.984375 5.117188 -7.28125 4.328125 -7.28125 Z M 4.328125 -8.171875 C 5.453125 -8.171875 6.351562 -7.789062 7.03125 -7.03125 C 7.707031 -6.28125 8.046875 -5.269531 8.046875 -4 C 8.046875 -2.738281 7.707031 -1.726562 7.03125 -0.96875 C 6.351562 -0.21875 5.453125 0.15625 4.328125 0.15625 C 3.203125 0.15625 2.300781 -0.21875 1.625 -0.96875 C 0.957031 -1.71875 0.625 -2.726562 0.625 -4 C 0.625 -5.269531 0.957031 -6.28125 1.625 -7.03125 C 2.300781 -7.789062 3.203125 -8.171875 4.328125 -8.171875 Z M 4.328125 -8.171875 "/>
</symbol>
<symbol overflow="visible" id="glyph0-2">
<path style="stroke:none;" d="M 1.078125 -8.015625 L 2.546875 -8.015625 L 6.09375 -1.3125 L 6.09375 -8.015625 L 7.15625 -8.015625 L 7.15625 0 L 5.6875 0 L 2.125 -6.703125 L 2.125 0 L 1.078125 0 Z M 1.078125 -8.015625 "/>
</symbol>
<symbol overflow="visible" id="glyph0-3">
<path style="stroke:none;" d="M 1.078125 -8.015625 L 2.171875 -8.015625 L 2.171875 -4.734375 L 6.109375 -4.734375 L 6.109375 -8.015625 L 7.1875 -8.015625 L 7.1875 0 L 6.109375 0 L 6.109375 -3.8125 L 2.171875 -3.8125 L 2.171875 0 L 1.078125 0 Z M 1.078125 -8.015625 "/>
</symbol>
<symbol overflow="visible" id="glyph1-0">
<path style="stroke:none;" d="M 0.453125 1.59375 L 0.453125 -6.34375 L 4.953125 -6.34375 L 4.953125 1.59375 Z M 0.953125 1.09375 L 4.453125 1.09375 L 4.453125 -5.84375 L 0.953125 -5.84375 Z M 0.953125 1.09375 "/>
</symbol>
<symbol overflow="visible" id="glyph1-1">
<path style="stroke:none;" d="M 1.734375 -0.75 L 4.828125 -0.75 L 4.828125 0 L 0.65625 0 L 0.65625 -0.75 C 1 -1.09375 1.457031 -1.554688 2.03125 -2.140625 C 2.613281 -2.734375 2.984375 -3.113281 3.140625 -3.28125 C 3.421875 -3.601562 3.613281 -3.875 3.71875 -4.09375 C 3.832031 -4.320312 3.890625 -4.539062 3.890625 -4.75 C 3.890625 -5.101562 3.769531 -5.390625 3.53125 -5.609375 C 3.289062 -5.828125 2.972656 -5.9375 2.578125 -5.9375 C 2.296875 -5.9375 2 -5.882812 1.6875 -5.78125 C 1.382812 -5.6875 1.054688 -5.539062 0.703125 -5.34375 L 0.703125 -6.25 C 1.054688 -6.382812 1.390625 -6.488281 1.703125 -6.5625 C 2.015625 -6.644531 2.300781 -6.6875 2.5625 -6.6875 C 3.238281 -6.6875 3.78125 -6.515625 4.1875 -6.171875 C 4.59375 -5.828125 4.796875 -5.375 4.796875 -4.8125 C 4.796875 -4.539062 4.742188 -4.28125 4.640625 -4.03125 C 4.535156 -3.789062 4.351562 -3.507812 4.09375 -3.1875 C 4.019531 -3.101562 3.785156 -2.859375 3.390625 -2.453125 C 2.992188 -2.046875 2.441406 -1.476562 1.734375 -0.75 Z M 1.734375 -0.75 "/>
</symbol>
</g>
</defs>
<g id="surface21217">
<rect x="0" y="0" width="300" height="300" style="fill:rgb(100%,100%,100%);fill-opacity:1;stroke:none;"/>
<path style="fill:none;stroke-width:1.2;stroke-linecap:butt;stroke-linejoin:miter;stroke:rgb(100%,0%,0%);stroke-opacity:1;stroke-miterlimit:10;" d="M 212.25 194.855469 L 207.492188 182.21875 "/>
<path style="fill:none;stroke-width:1.2;stroke-linecap:butt;stroke-linejoin:miter;stroke:rgb(0%,0%,0%);stroke-opacity:1;stroke-miterlimit:10;" d="M 207.492188 182.21875 L 202.738281 169.582031 "/>
<path style="fill:none;stroke-width:1.2;stroke-linecap:butt;stroke-linejoin:miter;stroke:rgb(100%,0%,0%);stroke-opacity:1;stroke-miterlimit:10;" d="M 206.304688 197.09375 L 201.546875 184.457031 "/>
<path style="fill:none;stroke-width:1.2;stroke-linecap:butt;stroke-linejoin:miter;stroke:rgb(0%,0%,0%);stroke-opacity:1;stroke-miterlimit:10;" d="M 201.546875 184.457031 L 196.789062 171.824219 "/>
<path style=" stroke:none;fill-rule:nonzero;fill:rgb(100%,100%,100%);fill-opacity:1;" d="M 205.277344 189.476562 L 214.277344 189.476562 L 214.277344 202.476562 L 205.277344 202.476562 Z M 205.277344 189.476562 "/>
<g style="fill:rgb(100%,0%,0%);fill-opacity:1;">
  <use xlink:href="#glyph0-1" x="205.277344" y="199.37793"/>
</g>
<path style="fill:none;stroke-width:1.2;stroke-linecap:butt;stroke-linejoin:miter;stroke:rgb(0%,0%,0%);stroke-opacity:1;stroke-miterlimit:10;" d="M 199.765625 170.703125 L 172.867188 168.308594 "/>
<path style="fill:none;stroke-width:1.2;stroke-linecap:butt;stroke-linejoin:miter;stroke:rgb(0%,0%,0%);stroke-opacity:1;stroke-miterlimit:10;" d="M 218.40625 151.167969 L 199.765625 170.703125 "/>
<path style="fill:none;stroke-width:1.2;stroke-linecap:butt;stroke-linejoin:miter;stroke:rgb(0%,0%,0%);stroke-opacity:1;stroke-miterlimit:10;" d="M 172.867188 168.308594 L 157.96875 145.785156 "/>
<path style="fill:none;stroke-width:1.2;stroke-linecap:butt;stroke-linejoin:miter;stroke:rgb(0%,0%,0%);stroke-opacity:1;stroke-miterlimit:10;" d="M 166.078125 169.5625 L 154.15625 151.542969 "/>
<path style="fill:none;stroke-width:1.2;stroke-linecap:butt;stroke-linejoin:miter;stroke:rgb(0%,0%,0%);stroke-opacity:1;stroke-miterlimit:10;" d="M 160.808594 192.472656 L 172.867188 168.308594 "/>
<path style="fill:none;stroke-width:1.2;stroke-linecap:butt;stroke-linejoin:miter;stroke:rgb(0%,0%,0%);stroke-opacity:1;stroke-miterlimit:10;" d="M 157.96875 145.785156 L 131.011719 147.425781 "/>
<path style="fill:none;stroke-width:1.2;stroke-linecap:butt;stroke-linejoin:miter;stroke:rgb(0%,0%,0%);stroke-opacity:1;stroke-miterlimit:10;" d="M 157.96875 145.785156 L 166.285156 120.09375 "/>
<path style="fill:none;stroke-width:1.2;stroke-linecap:butt;stroke-linejoin:miter;stroke:rgb(0%,0%,0%);stroke-opacity:1;stroke-miterlimit:10;" d="M 131.011719 147.425781 L 118.957031 171.589844 "/>
<path style="fill:none;stroke-width:1.2;stroke-linecap:butt;stroke-linejoin:miter;stroke:rgb(0%,0%,0%);stroke-opacity:1;stroke-miterlimit:10;" d="M 135.492188 152.679688 L 125.847656 172.011719 "/>
<path style="fill:none;stroke-width:1.2;stroke-linecap:butt;stroke-linejoin:miter;stroke:rgb(0%,0%,0%);stroke-opacity:1;stroke-miterlimit:10;" d="M 118.957031 171.589844 L 105.480469 172.414062 "/>
<path style="fill:none;stroke-width:1.2;stroke-linecap:butt;stroke-linejoin:miter;stroke:rgb(0%,0%,100%);stroke-opacity:1;stroke-miterlimit:10;" d="M 105.480469 172.414062 L 92.003906 173.234375 "/>
<path style="fill:none;stroke-width:1.2;stroke-linecap:butt;stroke-linejoin:miter;stroke:rgb(0%,0%,0%);stroke-opacity:1;stroke-miterlimit:10;" d="M 118.957031 171.589844 L 133.855469 194.113281 "/>
<path style="fill:none;stroke-width:1.2;stroke-linecap:butt;stroke-linejoin:miter;stroke:rgb(0%,0%,100%);stroke-opacity:1;stroke-miterlimit:10;" d="M 92.003906 173.234375 L 84.550781 161.972656 "/>
<path style="fill:none;stroke-width:1.2;stroke-linecap:butt;stroke-linejoin:miter;stroke:rgb(0%,0%,0%);stroke-opacity:1;stroke-miterlimit:10;" d="M 84.550781 161.972656 L 77.101562 150.710938 "/>
<path style=" stroke:none;fill-rule:nonzero;fill:rgb(100%,100%,100%);fill-opacity:1;" d="M 84.003906 166.734375 L 101.003906 166.734375 L 101.003906 179.734375 L 84.003906 179.734375 Z M 84.003906 166.734375 "/>
<g style="fill:rgb(0%,0%,100%);fill-opacity:1;">
  <use xlink:href="#glyph0-2" x="84.003906" y="176.635742"/>
  <use xlink:href="#glyph0-3" x="91.987305" y="176.635742"/>
</g>
<path style="fill:none;stroke-width:1.2;stroke-linecap:butt;stroke-linejoin:miter;stroke:rgb(0%,0%,0%);stroke-opacity:1;stroke-miterlimit:10;" d="M 77.101562 150.710938 L 89.160156 126.546875 "/>
<path style="fill:none;stroke-width:1.2;stroke-linecap:butt;stroke-linejoin:miter;stroke:rgb(0%,0%,0%);stroke-opacity:1;stroke-miterlimit:10;" d="M 72.625 145.457031 L 82.269531 126.125 "/>
<path style="fill:none;stroke-width:1.2;stroke-linecap:butt;stroke-linejoin:miter;stroke:rgb(0%,0%,0%);stroke-opacity:1;stroke-miterlimit:10;" d="M 50.148438 152.351562 L 77.101562 150.710938 "/>
<path style="fill:none;stroke-width:1.2;stroke-linecap:butt;stroke-linejoin:miter;stroke:rgb(0%,0%,0%);stroke-opacity:1;stroke-miterlimit:10;" d="M 89.160156 126.546875 L 74.261719 104.023438 "/>
<path style="fill:none;stroke-width:1.2;stroke-linecap:butt;stroke-linejoin:miter;stroke:rgb(0%,0%,0%);stroke-opacity:1;stroke-miterlimit:10;" d="M 74.261719 104.023438 L 47.304688 105.664062 "/>
<path style="fill:none;stroke-width:1.2;stroke-linecap:butt;stroke-linejoin:miter;stroke:rgb(0%,0%,0%);stroke-opacity:1;stroke-miterlimit:10;" d="M 71.949219 110.53125 L 50.386719 111.84375 "/>
<path style="fill:none;stroke-width:1.2;stroke-linecap:butt;stroke-linejoin:miter;stroke:rgb(0%,0%,0%);stroke-opacity:1;stroke-miterlimit:10;" d="M 47.304688 105.664062 L 35.25 129.828125 "/>
<path style="fill:none;stroke-width:1.2;stroke-linecap:butt;stroke-linejoin:miter;stroke:rgb(0%,0%,0%);stroke-opacity:1;stroke-miterlimit:10;" d="M 35.25 129.828125 L 50.148438 152.351562 "/>
<path style="fill:none;stroke-width:1.2;stroke-linecap:butt;stroke-linejoin:miter;stroke:rgb(0%,0%,0%);stroke-opacity:1;stroke-miterlimit:10;" d="M 42.039062 128.574219 L 53.957031 146.59375 "/>
<path style="fill:none;stroke-width:1.2;stroke-linecap:butt;stroke-linejoin:miter;stroke:rgb(0%,0%,0%);stroke-opacity:1;stroke-miterlimit:10;" d="M 50.148438 152.351562 L 44.121094 164.433594 "/>
<path style="fill:none;stroke-width:1.2;stroke-linecap:butt;stroke-linejoin:miter;stroke:rgb(0%,0%,100%);stroke-opacity:1;stroke-miterlimit:10;" d="M 44.121094 164.433594 L 38.09375 176.515625 "/>
<path style=" stroke:none;fill-rule:nonzero;fill:rgb(100%,100%,100%);fill-opacity:1;" d="M 16.09375 168.015625 L 38.09375 168.015625 L 38.09375 185.015625 L 16.09375 185.015625 Z M 16.09375 168.015625 "/>
<g style="fill:rgb(0%,0%,100%);fill-opacity:1;">
  <use xlink:href="#glyph0-3" x="16.09375" y="177.916992"/>
</g>
<g style="fill:rgb(0%,0%,100%);fill-opacity:1;">
  <use xlink:href="#glyph1-1" x="24.118164" y="182.799805"/>
</g>
<g style="fill:rgb(0%,0%,100%);fill-opacity:1;">
  <use xlink:href="#glyph0-2" x="29.774414" y="177.916992"/>
</g>
<path style="fill:none;stroke-width:1.2;stroke-linecap:butt;stroke-linejoin:miter;stroke:rgb(0%,0%,0%);stroke-opacity:1;stroke-miterlimit:10;" d="M 133.855469 194.113281 L 160.808594 192.472656 "/>
<path style="fill:none;stroke-width:1.2;stroke-linecap:butt;stroke-linejoin:miter;stroke:rgb(0%,0%,0%);stroke-opacity:1;stroke-miterlimit:10;" d="M 136.164062 187.609375 L 157.726562 186.292969 "/>
<path style="fill:none;stroke-width:1.2;stroke-linecap:butt;stroke-linejoin:miter;stroke:rgb(0%,0%,0%);stroke-opacity:1;stroke-miterlimit:10;" d="M 166.285156 120.09375 L 191.558594 110.582031 "/>
<path style="fill:none;stroke-width:1.2;stroke-linecap:butt;stroke-linejoin:miter;stroke:rgb(0%,0%,0%);stroke-opacity:1;stroke-miterlimit:10;" d="M 191.558594 110.582031 L 214.753906 124.410156 "/>
<path style="fill:none;stroke-width:1.2;stroke-linecap:butt;stroke-linejoin:miter;stroke:rgb(0%,0%,0%);stroke-opacity:1;stroke-miterlimit:10;" d="M 214.753906 124.410156 L 218.40625 151.167969 "/>
<path style="fill:none;stroke-width:1.2;stroke-linecap:butt;stroke-linejoin:miter;stroke:rgb(0%,0%,0%);stroke-opacity:1;stroke-miterlimit:10;" d="M 221.417969 126.226562 L 224.335938 147.632812 "/>
<path style="fill:none;stroke-width:1.2;stroke-linecap:butt;stroke-linejoin:miter;stroke:rgb(0%,0%,0%);stroke-opacity:1;stroke-miterlimit:10;" d="M 236.101562 107.871094 L 214.753906 124.410156 "/>
<path style="fill:none;stroke-width:1.2;stroke-linecap:butt;stroke-linejoin:miter;stroke:rgb(0%,0%,0%);stroke-opacity:1;stroke-miterlimit:10;" d="M 218.40625 151.167969 L 243.402344 161.382812 "/>
<path style="fill:none;stroke-width:1.2;stroke-linecap:butt;stroke-linejoin:miter;stroke:rgb(0%,0%,0%);stroke-opacity:1;stroke-miterlimit:10;" d="M 243.402344 161.382812 L 264.75 144.84375 "/>
<path style="fill:none;stroke-width:1.2;stroke-linecap:butt;stroke-linejoin:miter;stroke:rgb(0%,0%,0%);stroke-opacity:1;stroke-miterlimit:10;" d="M 241.648438 154.707031 L 258.722656 141.472656 "/>
<path style="fill:none;stroke-width:1.2;stroke-linecap:butt;stroke-linejoin:miter;stroke:rgb(0%,0%,0%);stroke-opacity:1;stroke-miterlimit:10;" d="M 264.75 144.84375 L 261.097656 118.085938 "/>
<path style="fill:none;stroke-width:1.2;stroke-linecap:butt;stroke-linejoin:miter;stroke:rgb(0%,0%,0%);stroke-opacity:1;stroke-miterlimit:10;" d="M 261.097656 118.085938 L 236.101562 107.871094 "/>
<path style="fill:none;stroke-width:1.2;stroke-linecap:butt;stroke-linejoin:miter;stroke:rgb(0%,0%,0%);stroke-opacity:1;stroke-miterlimit:10;" d="M 256.195312 122.945312 L 236.199219 114.773438 "/>
</g>
</svg>

<svg xmlns="http://www.w3.org/2000/svg" xmlns:xlink="http://www.w3.org/1999/xlink" width="300pt" height="300pt" viewBox="0 0 300 300"><defs><symbol overflow="visible"><path d="M.547 1.938V-7.75h5.5v9.688zm.625-.61h4.266v-8.47H1.171zm0 0"/></symbol><symbol overflow="visible" id="a"><path d="M4.328-7.28c-.78 0-1.406.296-1.875.89-.46.585-.687 1.382-.687 2.39 0 1.012.226 1.813.687 2.406.47.586 1.094.875 1.875.875.79 0 1.414-.288 1.875-.874.457-.593.688-1.394.688-2.406 0-1.008-.23-1.805-.687-2.39-.46-.594-1.086-.89-1.875-.89zm0-.892c1.125 0 2.024.383 2.703 1.14C7.708-6.28 8.048-5.27 8.048-4c0 1.262-.34 2.273-1.016 3.03C6.353-.22 5.454.157 4.33.157S2.3-.22 1.625-.97c-.668-.75-1-1.757-1-3.03 0-1.27.332-2.28 1-3.03.676-.76 1.578-1.142 2.703-1.142zm0 0"/></symbol><symbol overflow="visible" id="b"><path d="M1.078-8.016h1.47l3.546 6.704v-6.704h1.062V0H5.688L2.124-6.703V0H1.078zm0 0"/></symbol><symbol overflow="visible" id="c"><path d="M1.078-8.016h1.094v3.282H6.11v-3.282h1.077V0H6.11v-3.813H2.17V0H1.078zm0 0"/></symbol><symbol overflow="visible"><path d="M.453 1.594v-7.938h4.5v7.938zm.5-.5h3.5v-6.938h-3.5zm0 0"/></symbol><symbol overflow="visible" id="d"><path d="M1.734-.75h3.094V0H.656v-.75c.344-.344.8-.805 1.375-1.39.583-.594.954-.973 1.11-1.14.282-.322.473-.595.58-.814.112-.226.17-.445.17-.656 0-.352-.12-.64-.36-.86-.24-.218-.557-.327-.952-.327-.28 0-.578.054-.89.156-.305.093-.633.24-.985.436v-.906c.352-.133.688-.238 1-.313.313-.082.598-.125.86-.125.675 0 1.218.172 1.624.516.407.344.61.797.61 1.36 0 .273-.055.53-.156.78-.105.243-.288.524-.546.845-.074.085-.31.328-.703.734-.398.406-.95.976-1.656 1.703zm0 0"/></symbol></defs><g><path fill="#fff" d="M0 0h300v300H0z"/><path d="M212.25 194.855l-4.758-12.636" stroke-width="1.2" stroke="#f00" stroke-miterlimit="10" fill="none"/><path d="M207.492 182.22l-4.754-12.638" stroke-width="1.2" stroke="#000" stroke-miterlimit="10" fill="none"/><path d="M206.305 197.094l-4.758-12.637" stroke-width="1.2" stroke="#f00" stroke-miterlimit="10" fill="none"/><path d="M201.547 184.457l-4.758-12.633" stroke-width="1.2" stroke="#000" stroke-miterlimit="10" fill="none"/><path d="M205.277 189.477h9v13h-9zm0 0" fill="#fff"/><use xlink:href="#a" x="205.277" y="199.378" fill="#f00"/><path d="M199.766 170.703l-26.9-2.394M218.406 151.168l-18.64 19.535M172.867 168.31l-14.898-22.525M166.078 169.563l-11.922-18.02M160.81 192.473l12.057-24.164M157.97 145.785l-26.958 1.64M157.97 145.785l8.315-25.69M131.012 147.426l-12.055 24.164M135.492 152.68l-9.644 19.332M118.957 171.59l-13.477.824" stroke-width="1.2" stroke="#000" stroke-miterlimit="10" fill="none"/><path d="M105.48 172.414l-13.476.82" stroke-width="1.2" stroke="#00f" stroke-miterlimit="10" fill="none"/><path d="M118.957 171.59l14.898 22.523" stroke-width="1.2" stroke="#000" stroke-miterlimit="10" fill="none"/><path d="M92.004 173.234l-7.453-11.26" stroke-width="1.2" stroke="#00f" stroke-miterlimit="10" fill="none"/><path d="M84.55 161.973l-7.448-11.262" stroke-width="1.2" stroke="#000" stroke-miterlimit="10" fill="none"/><path d="M84.004 166.734h17v13h-17zm0 0" fill="#fff"/><g fill="#00f"><use xlink:href="#b" x="84.004" y="176.636"/><use xlink:href="#c" x="91.987" y="176.636"/></g><path d="M77.102 150.71l12.058-24.163M72.625 145.457l9.645-19.332M50.148 152.352l26.954-1.64M89.16 126.547l-14.898-22.524M74.262 104.023l-26.957 1.64M71.95 110.53l-21.563 1.314M47.305 105.664L35.25 129.828M35.25 129.828l14.898 22.524M42.04 128.574l11.917 18.02M50.148 152.352l-6.027 12.082" stroke-width="1.2" stroke="#000" stroke-miterlimit="10" fill="none"/><path d="M44.12 164.434l-6.026 12.082" stroke-width="1.2" stroke="#00f" stroke-miterlimit="10" fill="none"/><path d="M16.094 168.016h22v17h-22zm0 0" fill="#fff"/><use xlink:href="#c" x="16.094" y="177.917" fill="#00f"/><use xlink:href="#d" x="24.118" y="182.8" fill="#00f"/><use xlink:href="#b" x="29.774" y="177.917" fill="#00f"/><path d="M133.855 194.113l26.954-1.64M136.164 187.61l21.563-1.317M166.285 120.094l25.274-9.512M191.56 110.582l23.194 13.828M214.754 124.41l3.652 26.758M221.418 126.227l2.918 21.406M236.102 107.87l-21.348 16.54M218.406 151.168l24.996 10.215M243.402 161.383l21.348-16.54M241.648 154.707l17.075-13.234M264.75 144.844l-3.652-26.758M261.098 118.086l-24.996-10.215M256.195 122.945l-19.996-8.172" stroke-width="1.2" stroke="#000" stroke-miterlimit="10" fill="none"/></g></svg>
